status/22/network-idle.svg

<?xml version="1.0" encoding="UTF-8" standalone="no"?>
<!-- Created with Inkscape (http://www.inkscape.org/) -->

<svg
   xmlns:svg="http://www.w3.org/2000/svg"
   xmlns="http://www.w3.org/2000/svg"
   xmlns:xlink="http://www.w3.org/1999/xlink"
   version="1.0"
   width="22"
   height="22"
   id="svg2404">
  <defs
     id="defs2406">
    <linearGradient
       id="linearGradient2190">
      <stop
         id="stop2192"
         style="stop-color:#dadada;stop-opacity:1"
         offset="0" />
      <stop
         id="stop2196"
         style="stop-color:#707070;stop-opacity:1"
         offset="1" />
    </linearGradient>
    <linearGradient
       id="linearGradient2327">
      <stop
         id="stop2329"
         style="stop-color:#131313;stop-opacity:1"
         offset="0" />
      <stop
         id="stop2331"
         style="stop-color:#585858;stop-opacity:1"
         offset="1" />
    </linearGradient>
    <linearGradient
       id="linearGradient6240">
      <stop
         id="stop6242"
         style="stop-color:white;stop-opacity:1"
         offset="0" />
      <stop
         id="stop6244"
         style="stop-color:white;stop-opacity:0"
         offset="1" />
    </linearGradient>
    <linearGradient
       x1="72.67894"
       y1="204.05263"
       x2="72.67894"
       y2="180.04262"
       id="linearGradient2438"
       xlink:href="#linearGradient2190"
       gradientUnits="userSpaceOnUse"
       gradientTransform="matrix(0.06341792,0,0,0.05937977,-4.1145668,-5.6681545)" />
    <linearGradient
       x1="32.733955"
       y1="3.1467361"
       x2="32.733955"
       y2="33.843147"
       id="linearGradient2440"
       xlink:href="#linearGradient2327"
       gradientUnits="userSpaceOnUse"
       gradientTransform="matrix(0.3271157,0,0,0.3455909,-7.3878823,-8.0109117)" />
    <linearGradient
       x1="20.156862"
       y1="5.0996137"
       x2="20.156862"
       y2="26.039215"
       id="linearGradient2442"
       xlink:href="#linearGradient6240"
       gradientUnits="userSpaceOnUse"
       gradientTransform="matrix(0.3850134,0,0,0.4119218,-8.747797,-10.282233)" />
    <linearGradient
       x1="72.67894"
       y1="204.05263"
       x2="72.67894"
       y2="180.04262"
       id="linearGradient2414"
       xlink:href="#linearGradient2190"
       gradientUnits="userSpaceOnUse"
       gradientTransform="matrix(0.06341792,0,0,0.05937977,-4.1145668,-5.6681545)" />
    <linearGradient
       x1="32.733955"
       y1="3.1467361"
       x2="32.733955"
       y2="33.843147"
       id="linearGradient2416"
       xlink:href="#linearGradient2327"
       gradientUnits="userSpaceOnUse"
       gradientTransform="matrix(0.3271157,0,0,0.3455909,-7.3878823,-8.0109117)" />
    <linearGradient
       x1="20.156862"
       y1="5.0996137"
       x2="20.156862"
       y2="26.039215"
       id="linearGradient2418"
       xlink:href="#linearGradient6240"
       gradientUnits="userSpaceOnUse"
       gradientTransform="matrix(0.3850134,0,0,0.4119218,-8.747797,-10.282233)" />
  </defs>
  <g
     transform="translate(5.9999997,0)"
     id="layer1">
    <g
       transform="translate(7.5044555,8.0826734)"
       id="g2431">
      <path
         d="m -2.7632694,4.932397 c 0,0 -0.470746,1.813265 -0.470746,1.934391 0,0.114415 -0.1059243,0.790673 0.3251722,0.790673 0.4235525,0 6.5608422,0 6.8897882,0 0.329565,0 0.224159,-0.8098 0.252715,-0.873644 C 4.261282,6.722069 3.752434,4.930331 3.752434,4.930331 l -6.5157034,0.00207 z"
         id="path2170"
         style="fill:#b3b3b3;fill-opacity:1;fill-rule:evenodd;stroke:#4d4d4d;stroke-width:0.51974148;stroke-linecap:round;stroke-linejoin:round;stroke-miterlimit:4;stroke-opacity:1;stroke-dasharray:none" />
      <path
         d="m -2.7632694,4.179012 c 0,0 -0.3600839,1.853144 -0.4425954,2.141473 -0.08195,0.286367 -0.063756,0.337168 0.3117363,0.337168 0.3679117,0 6.5248195,0 6.8223245,0 0.304988,0 0.338278,-0.101444 0.286758,-0.340409 C 4.164574,6.083577 3.752434,4.176998 3.752434,4.176998 l -6.5157034,0.00201 z"
         id="path2186"
         style="opacity:0.6;fill:url(#linearGradient2438);fill-opacity:1;fill-rule:evenodd;stroke:#b3b3b3;stroke-width:0.51934463;stroke-linecap:round;stroke-linejoin:round;stroke-miterlimit:4;stroke-opacity:1;stroke-dasharray:none" />
      <path
         d="m -6.696408,-7.8281608 c 4.7946348,0 9.58927,0 14.383904,0 0.534523,-0.00457 0.580195,0.6057332 0.544433,1.0268254 0,3.6276004 -2e-6,7.25520039 -2e-6,10.8828004 0.00436,0.561373 -0.576761,0.609338 -0.977713,0.57178 -4.650207,0 -9.3004148,0 -13.950622,0 -0.5345223,0.00458 -0.5801946,-0.605732 -0.5444315,-1.026826 0,-3.62760001 0,-7.2552 0,-10.8828008 -0.00707,-0.307346 0.2516863,-0.5791755 0.5444315,-0.571779 z"
         id="rect3170"
         style="fill:#333;fill-opacity:1;fill-rule:evenodd;stroke:#1a1a1a;stroke-width:0.50874043;stroke-linecap:round;stroke-linejoin:round;stroke-miterlimit:4;stroke-opacity:1;stroke-dasharray:none;stroke-dashoffset:0;marker:none;visibility:visible;display:inline;overflow:visible;enable-background:accumulate" />
      <path
         d="m -6.590561,-7.152707 c 4.7240706,0 9.448141,0 14.172211,0 0,3.713353 0,7.42670699 0,11.140061 -4.72407,0 -9.4481404,0 -14.172211,0 0,-3.71335401 0,-7.426708 0,-11.140061 z"
         id="rect4151"
         style="fill:url(#linearGradient2440);fill-opacity:1;fill-rule:evenodd;stroke:black;stroke-width:0.50897282;stroke-linecap:round;stroke-linejoin:round;stroke-miterlimit:4;stroke-opacity:1;stroke-dasharray:none;stroke-dashoffset:0;marker:none;visibility:visible;display:inline;overflow:visible;enable-background:accumulate" />
      <path
         d="m -6.4286575,-6.9739349 0,7.41782489 C -0.09732526,-0.11395601 2.2721399,-3.721637 7.419744,-4.098559 l 3e-6,-2.8882986 -13.8484045,0.012923 z"
         id="path4073"
         style="opacity:0.4;fill:url(#linearGradient2442);fill-opacity:1;fill-rule:evenodd;stroke:none" />
    </g>
  </g>
  <g
     transform="translate(0,5.9999949)"
     id="g2400">
    <g
       transform="translate(7.5044555,8.0826734)"
       id="g2402">
      <path
         d="m -2.7632694,4.932397 c 0,0 -0.470746,1.813265 -0.470746,1.934391 0,0.114415 -0.1059243,0.790673 0.3251722,0.790673 0.4235525,0 6.5608422,0 6.8897882,0 0.329565,0 0.224159,-0.8098 0.252715,-0.873644 C 4.261282,6.722069 3.752434,4.930331 3.752434,4.930331 l -6.5157034,0.00207 z"
         id="path2404"
         style="fill:#b3b3b3;fill-opacity:1;fill-rule:evenodd;stroke:#4d4d4d;stroke-width:0.51974148;stroke-linecap:round;stroke-linejoin:round;stroke-miterlimit:4;stroke-opacity:1;stroke-dasharray:none" />
      <path
         d="m -2.7632694,4.179012 c 0,0 -0.3600839,1.853144 -0.4425954,2.141473 -0.08195,0.286367 -0.063756,0.337168 0.3117363,0.337168 0.3679117,0 6.5248195,0 6.8223245,0 0.304988,0 0.338278,-0.101444 0.286758,-0.340409 C 4.164574,6.083577 3.752434,4.176998 3.752434,4.176998 l -6.5157034,0.00201 z"
         id="path2406"
         style="opacity:0.6;fill:url(#linearGradient2414);fill-opacity:1;fill-rule:evenodd;stroke:#b3b3b3;stroke-width:0.51934463;stroke-linecap:round;stroke-linejoin:round;stroke-miterlimit:4;stroke-opacity:1;stroke-dasharray:none" />
      <path
         d="m -6.696408,-7.8281608 c 4.7946348,0 9.58927,0 14.383904,0 0.534523,-0.00457 0.580195,0.6057332 0.544433,1.0268254 0,3.6276004 -2e-6,7.25520039 -2e-6,10.8828004 0.00436,0.561373 -0.576761,0.609338 -0.977713,0.57178 -4.650207,0 -9.3004148,0 -13.950622,0 -0.5345223,0.00458 -0.5801946,-0.605732 -0.5444315,-1.026826 0,-3.62760001 0,-7.2552 0,-10.8828008 -0.00707,-0.307346 0.2516863,-0.5791755 0.5444315,-0.571779 z"
         id="path2408"
         style="fill:#333;fill-opacity:1;fill-rule:evenodd;stroke:#1a1a1a;stroke-width:0.50874043;stroke-linecap:round;stroke-linejoin:round;stroke-miterlimit:4;stroke-opacity:1;stroke-dasharray:none;stroke-dashoffset:0;marker:none;visibility:visible;display:inline;overflow:visible;enable-background:accumulate" />
      <path
         d="m -6.590561,-7.152707 c 4.7240706,0 9.448141,0 14.172211,0 0,3.713353 0,7.42670699 0,11.140061 -4.72407,0 -9.4481404,0 -14.172211,0 0,-3.71335401 0,-7.426708 0,-11.140061 z"
         id="path2410"
         style="fill:url(#linearGradient2416);fill-opacity:1;fill-rule:evenodd;stroke:black;stroke-width:0.50897282;stroke-linecap:round;stroke-linejoin:round;stroke-miterlimit:4;stroke-opacity:1;stroke-dasharray:none;stroke-dashoffset:0;marker:none;visibility:visible;display:inline;overflow:visible;enable-background:accumulate" />
      <path
         d="m -6.4286575,-6.9739349 0,7.41782489 C -0.09732526,-0.11395601 2.2721399,-3.721637 7.419744,-4.098559 l 3e-6,-2.8882986 -13.8484045,0.012923 z"
         id="path2412"
         style="opacity:0.4;fill:url(#linearGradient2418);fill-opacity:1;fill-rule:evenodd;stroke:none" />
    </g>
  </g>
</svg>

<?xml version="1.0" encoding="UTF-8" standalone="no"?>
<!-- Created with Inkscape (http://www.inkscape.org/) -->
<svg
   xmlns:svg="http://www.w3.org/2000/svg"
   xmlns="http://www.w3.org/2000/svg"
   xmlns:xlink="http://www.w3.org/1999/xlink"
   version="1.0"
   width="22"
   height="22"
   id="svg2404">
  <defs
     id="defs2406">
    <linearGradient
       id="linearGradient2190">
      <stop
         id="stop2192"
         style="stop-color:#dadada;stop-opacity:1"
         offset="0" />
      <stop
         id="stop2196"
         style="stop-color:#707070;stop-opacity:1"
         offset="1" />
    </linearGradient>
    <linearGradient
       id="linearGradient2327">
      <stop
         id="stop2329"
         style="stop-color:#131313;stop-opacity:1"
         offset="0" />
      <stop
         id="stop2331"
         style="stop-color:#585858;stop-opacity:1"
         offset="1" />
    </linearGradient>
    <linearGradient
       id="linearGradient6240">
      <stop
         id="stop6242"
         style="stop-color:#ffffff;stop-opacity:1"
         offset="0" />
      <stop
         id="stop6244"
         style="stop-color:#ffffff;stop-opacity:0"
         offset="1" />
    </linearGradient>
    <linearGradient
       x1="72.67894"
       y1="204.05263"
       x2="72.67894"
       y2="180.04262"
       id="linearGradient2438"
       xlink:href="#linearGradient2190"
       gradientUnits="userSpaceOnUse"
       gradientTransform="matrix(6.3417923e-2,0,0,5.9379774e-2,-4.1145668,-5.6681545)" />
    <linearGradient
       x1="32.733955"
       y1="3.1467361"
       x2="32.733955"
       y2="33.843147"
       id="linearGradient2440"
       xlink:href="#linearGradient2327"
       gradientUnits="userSpaceOnUse"
       gradientTransform="matrix(0.3271157,0,0,0.3455909,-7.3878823,-8.0109117)" />
    <linearGradient
       x1="20.156862"
       y1="5.0996137"
       x2="20.156862"
       y2="26.039215"
       id="linearGradient2442"
       xlink:href="#linearGradient6240"
       gradientUnits="userSpaceOnUse"
       gradientTransform="matrix(0.3850134,0,0,0.4119218,-8.747797,-10.282233)" />
    <linearGradient
       x1="72.67894"
       y1="204.05263"
       x2="72.67894"
       y2="180.04262"
       id="linearGradient2414"
       xlink:href="#linearGradient2190"
       gradientUnits="userSpaceOnUse"
       gradientTransform="matrix(6.3417923e-2,0,0,5.9379774e-2,-4.1145668,-5.6681545)" />
    <linearGradient
       x1="32.733955"
       y1="3.1467361"
       x2="32.733955"
       y2="33.843147"
       id="linearGradient2416"
       xlink:href="#linearGradient2327"
       gradientUnits="userSpaceOnUse"
       gradientTransform="matrix(0.3271157,0,0,0.3455909,-7.3878823,-8.0109117)" />
    <linearGradient
       x1="20.156862"
       y1="5.0996137"
       x2="20.156862"
       y2="26.039215"
       id="linearGradient2418"
       xlink:href="#linearGradient6240"
       gradientUnits="userSpaceOnUse"
       gradientTransform="matrix(0.3850134,0,0,0.4119218,-8.747797,-10.282233)" />
  </defs>
  <g
     transform="translate(5.9999997,0)"
     id="layer1">
    <g
       transform="translate(7.5044555,8.0826734)"
       id="g2431">
      <path
         d="M -2.7632694,4.932397 C -2.7632694,4.932397 -3.2340154,6.745662 -3.2340154,6.866788 C -3.2340154,6.981203 -3.3399397,7.657461 -2.9088432,7.657461 C -2.4852907,7.657461 3.651999,7.657461 3.980945,7.657461 C 4.31051,7.657461 4.205104,6.847661 4.23366,6.783817 C 4.261282,6.722069 3.752434,4.930331 3.752434,4.930331 L -2.7632694,4.932397 z"
         id="path2170"
         style="fill:#b3b3b3;fill-opacity:1;fill-rule:evenodd;stroke:#4d4d4d;stroke-width:0.51974148;stroke-linecap:round;stroke-linejoin:round;stroke-miterlimit:4;stroke-dasharray:none;stroke-opacity:1" />
      <path
         d="M -2.7632694,4.179012 C -2.7632694,4.179012 -3.1233533,6.032156 -3.2058648,6.320485 C -3.2878148,6.606852 -3.269621,6.657653 -2.8941285,6.657653 C -2.5262168,6.657653 3.630691,6.657653 3.928196,6.657653 C 4.233184,6.657653 4.266474,6.556209 4.214954,6.317244 C 4.164574,6.083577 3.752434,4.176998 3.752434,4.176998 L -2.7632694,4.179012 z"
         id="path2186"
         style="opacity:0.6;fill:url(#linearGradient2438);fill-opacity:1;fill-rule:evenodd;stroke:#b3b3b3;stroke-width:0.51934463;stroke-linecap:round;stroke-linejoin:round;stroke-miterlimit:4;stroke-dasharray:none;stroke-opacity:1" />
      <path
         d="M -6.696408,-7.8281608 C -1.9017732,-7.8281608 2.892862,-7.8281608 7.687496,-7.8281608 C 8.222019,-7.8327352 8.267691,-7.2224276 8.231929,-6.8013354 C 8.231929,-3.173735 8.231927,0.45386499 8.231927,4.081465 C 8.236284,4.642838 7.655166,4.690803 7.254214,4.653245 C 2.604007,4.653245 -2.0462008,4.653245 -6.696408,4.653245 C -7.2309303,4.657821 -7.2766026,4.047513 -7.2408395,3.626419 C -7.2408395,-0.0011810146 -7.2408395,-3.628781 -7.2408395,-7.2563818 C -7.2479064,-7.5637278 -6.9891532,-7.8355573 -6.696408,-7.8281608 z"
         id="rect3170"
         style="fill:#333333;fill-opacity:1;fill-rule:evenodd;stroke:#1a1a1a;stroke-width:0.50874043;stroke-linecap:round;stroke-linejoin:round;marker:none;marker-start:none;marker-mid:none;marker-end:none;stroke-miterlimit:4;stroke-dasharray:none;stroke-dashoffset:0;stroke-opacity:1;visibility:visible;display:inline;overflow:visible;enable-background:accumulate" />
      <path
         d="M -6.590561,-7.152707 C -1.8664904,-7.152707 2.85758,-7.152707 7.58165,-7.152707 C 7.58165,-3.439354 7.58165,0.27399999 7.58165,3.987354 C 2.85758,3.987354 -1.8664904,3.987354 -6.590561,3.987354 C -6.590561,0.27399999 -6.590561,-3.439354 -6.590561,-7.152707 z"
         id="rect4151"
         style="fill:url(#linearGradient2440);fill-opacity:1;fill-rule:evenodd;stroke:#000000;stroke-width:0.50897282;stroke-linecap:round;stroke-linejoin:round;marker:none;marker-start:none;marker-mid:none;marker-end:none;stroke-miterlimit:4;stroke-dasharray:none;stroke-dashoffset:0;stroke-opacity:1;visibility:visible;display:inline;overflow:visible;enable-background:accumulate" />
      <path
         d="M -6.4286575,-6.9739349 L -6.4286575,0.44388999 C -0.097325264,-0.11395601 2.2721399,-3.721637 7.419744,-4.098559 L 7.419747,-6.9868576 L -6.4286575,-6.9739349 z"
         id="path4073"
         style="opacity:0.4;fill:url(#linearGradient2442);fill-opacity:1;fill-rule:evenodd;stroke:none;stroke-width:1px;stroke-linecap:butt;stroke-linejoin:miter;stroke-opacity:1" />
    </g>
  </g>
  <g
     transform="translate(0,5.9999949)"
     id="g2400">
    <g
       transform="translate(7.5044555,8.0826734)"
       id="g2402">
      <path
         d="M -2.7632694,4.932397 C -2.7632694,4.932397 -3.2340154,6.745662 -3.2340154,6.866788 C -3.2340154,6.981203 -3.3399397,7.657461 -2.9088432,7.657461 C -2.4852907,7.657461 3.651999,7.657461 3.980945,7.657461 C 4.31051,7.657461 4.205104,6.847661 4.23366,6.783817 C 4.261282,6.722069 3.752434,4.930331 3.752434,4.930331 L -2.7632694,4.932397 z"
         id="path2404"
         style="fill:#b3b3b3;fill-opacity:1;fill-rule:evenodd;stroke:#4d4d4d;stroke-width:0.51974148;stroke-linecap:round;stroke-linejoin:round;stroke-miterlimit:4;stroke-dasharray:none;stroke-opacity:1" />
      <path
         d="M -2.7632694,4.179012 C -2.7632694,4.179012 -3.1233533,6.032156 -3.2058648,6.320485 C -3.2878148,6.606852 -3.269621,6.657653 -2.8941285,6.657653 C -2.5262168,6.657653 3.630691,6.657653 3.928196,6.657653 C 4.233184,6.657653 4.266474,6.556209 4.214954,6.317244 C 4.164574,6.083577 3.752434,4.176998 3.752434,4.176998 L -2.7632694,4.179012 z"
         id="path2406"
         style="opacity:0.6;fill:url(#linearGradient2414);fill-opacity:1;fill-rule:evenodd;stroke:#b3b3b3;stroke-width:0.51934463;stroke-linecap:round;stroke-linejoin:round;stroke-miterlimit:4;stroke-dasharray:none;stroke-opacity:1" />
      <path
         d="M -6.696408,-7.8281608 C -1.9017732,-7.8281608 2.892862,-7.8281608 7.687496,-7.8281608 C 8.222019,-7.8327352 8.267691,-7.2224276 8.231929,-6.8013354 C 8.231929,-3.173735 8.231927,0.45386499 8.231927,4.081465 C 8.236284,4.642838 7.655166,4.690803 7.254214,4.653245 C 2.604007,4.653245 -2.0462008,4.653245 -6.696408,4.653245 C -7.2309303,4.657821 -7.2766026,4.047513 -7.2408395,3.626419 C -7.2408395,-0.0011810146 -7.2408395,-3.628781 -7.2408395,-7.2563818 C -7.2479064,-7.5637278 -6.9891532,-7.8355573 -6.696408,-7.8281608 z"
         id="path2408"
         style="fill:#333333;fill-opacity:1;fill-rule:evenodd;stroke:#1a1a1a;stroke-width:0.50874043;stroke-linecap:round;stroke-linejoin:round;marker:none;marker-start:none;marker-mid:none;marker-end:none;stroke-miterlimit:4;stroke-dasharray:none;stroke-dashoffset:0;stroke-opacity:1;visibility:visible;display:inline;overflow:visible;enable-background:accumulate" />
      <path
         d="M -6.590561,-7.152707 C -1.8664904,-7.152707 2.85758,-7.152707 7.58165,-7.152707 C 7.58165,-3.439354 7.58165,0.27399999 7.58165,3.987354 C 2.85758,3.987354 -1.8664904,3.987354 -6.590561,3.987354 C -6.590561,0.27399999 -6.590561,-3.439354 -6.590561,-7.152707 z"
         id="path2410"
         style="fill:url(#linearGradient2416);fill-opacity:1;fill-rule:evenodd;stroke:#000000;stroke-width:0.50897282;stroke-linecap:round;stroke-linejoin:round;marker:none;marker-start:none;marker-mid:none;marker-end:none;stroke-miterlimit:4;stroke-dasharray:none;stroke-dashoffset:0;stroke-opacity:1;visibility:visible;display:inline;overflow:visible;enable-background:accumulate" />
      <path
         d="M -6.4286575,-6.9739349 L -6.4286575,0.44388999 C -0.097325264,-0.11395601 2.2721399,-3.721637 7.419744,-4.098559 L 7.419747,-6.9868576 L -6.4286575,-6.9739349 z"
         id="path2412"
         style="opacity:0.4;fill:url(#linearGradient2418);fill-opacity:1;fill-rule:evenodd;stroke:none;stroke-width:1px;stroke-linecap:butt;stroke-linejoin:miter;stroke-opacity:1" />
    </g>
  </g>
</svg>
